X: 14725
T: Gan Ainm
R: reel
M: 4/4
K: Dmixolydian
|:E|A3G EAAF|GEBG EFGE|ABAG EAAF|GEBG EDD:|
A|d2ed c2BA|GEDE GABc|d2ed c2BA|GEBG EDDA|
d2ed c2BA|BGGF GABc|d2ed c2BA|GEBG EDD|

